Origami/22x22/apps/bibletime.svg

<svg width="22" height="22" version="1.1" viewBox="0 0 22 22" xmlns="http://www.w3.org/2000/svg">
 <path d="M 3.0909094,0.5000013 C 2.4865455,0.5000013 2,0.9778584 2,1.5714298 V 19.428572 C 2,20.022143 2.4865455,20.5 3.0909094,20.5 H 16.909091 C 17.513454,20.5 18,20.022143 18,19.428572 V 1.5714298 C 18,0.9778584 17.513454,0.5000013 16.909091,0.5000013 Z" style="opacity:.2"/>
 <path d="M 3.0909094,1.3e-6 C 2.4865455,1.3e-6 2,0.4778585 2,1.0714298 V 18.928572 C 2,19.522143 2.4865455,20 3.0909094,20 H 16.909091 C 17.513454,20 18,19.522143 18,18.928572 V 1.0714298 C 18,0.4778585 17.513454,1.3e-6 16.909091,1.3e-6 Z" style="fill:#3d65c2"/>
 <path d="M 3.0909094,1.3e-6 C 2.4865455,1.3e-6 2,0.4778585 2,1.0714298 V 18.928572 C 2,19.522143 2.4865455,20 3.0909094,20 H 5.0000002 V 1.3e-6 Z" style="opacity:.2"/>
 <path d="m10 3.5v3h-3v3h3v8h3v-8h3v-3h-3v-3z" style="opacity:.2"/>
 <rect x="10" y="3" width="3" height="14" style="fill:#ffd972"/>
 <rect transform="rotate(90)" x="6" y="-16" width="3" height="9" style="fill:#ffd972"/>
 <path d="m3.0908209 1.2e-6c-0.6043641 0-1.0908205 0.4777177-1.0908205 1.071289v0.5c0-0.5935714 0.4864564-1.071289 1.0908205-1.071289h13.818358c0.604363 0 1.09082 0.4777176 1.09082 1.071289v-0.5c0-0.5935713-0.486457-1.071289-1.09082-1.071289z" style="fill:#ffffff;opacity:.1"/>
 <circle cx="16.5" cy="16.5" r="5.5" style="fill:#ff982d"/>
 <path d="m16.5 13a3.5 3.5 0 0 0 -3.5 3.5 3.5 3.5 0 0 0 3.5 3.5 3.5 3.5 0 0 0 3.5 -3.5 3.5 3.5 0 0 0 -3.5 -3.5zm0 1a2.5 2.5 0 0 1 2.5 2.5 2.5 2.5 0 0 1 -2.5 2.5 2.5 2.5 0 0 1 -2.5 -2.5 2.5 2.5 0 0 1 2.5 -2.5zm-0.5 0.5v2.5h2.5v-1h-1.5v-1.5z" style="fill:#ffffff"/>
</svg>

<svg xmlns="http://www.w3.org/2000/svg" width="22" height="22" version="1.1" viewBox="0 0 22 22">
 <path style="opacity:0.2" d="M 3.0909094,0.5000013 C 2.4865455,0.5000013 2,0.9778584 2,1.5714298 V 19.428572 C 2,20.022143 2.4865455,20.5 3.0909094,20.5 H 16.909091 C 17.513454,20.5 18,20.022143 18,19.428572 V 1.5714298 C 18,0.9778584 17.513454,0.5000013 16.909091,0.5000013 Z"/>
 <path style="fill:#3d65c2" d="M 3.0909094,1.3e-6 C 2.4865455,1.3e-6 2,0.4778585 2,1.0714298 V 18.928572 C 2,19.522143 2.4865455,20 3.0909094,20 H 16.909091 C 17.513454,20 18,19.522143 18,18.928572 V 1.0714298 C 18,0.4778585 17.513454,1.3e-6 16.909091,1.3e-6 Z"/>
 <path style="opacity:0.2" d="M 3.0909094,1.3e-6 C 2.4865455,1.3e-6 2,0.4778585 2,1.0714298 V 18.928572 C 2,19.522143 2.4865455,20 3.0909094,20 H 5.0000002 V 1.3e-6 Z"/>
 <path style="opacity:0.2" d="m 10,3.5 v 3 H 7 v 3 h 3 v 8 h 3 v -8 h 3 v -3 h -3 v -3 z"/>
 <rect style="fill:#ffd972" width="3" height="14" x="10" y="3"/>
 <rect style="fill:#ffd972" width="3" height="9" x="6" y="-16" transform="rotate(90)"/>
 <path style="opacity:0.1;fill:#ffffff" d="m 3.0908209,1.2e-6 c -0.6043641,0 -1.0908205,0.4777177 -1.0908205,1.071289 v 0.5 c 0,-0.5935714 0.4864564,-1.071289 1.0908205,-1.071289 H 16.909179 c 0.604363,0 1.09082,0.4777176 1.09082,1.071289 v -0.5 c 0,-0.5935713 -0.486457,-1.071289 -1.09082,-1.071289 z"/>
 <circle style="fill:#ff982d" cx="16.5" cy="16.5" r="5.5"/>
 <path style="fill:#ffffff" d="M 16.5,13 A 3.5,3.5 0 0 0 13,16.5 3.5,3.5 0 0 0 16.5,20 3.5,3.5 0 0 0 20,16.5 3.5,3.5 0 0 0 16.5,13 Z m 0,1 A 2.5,2.5 0 0 1 19,16.5 2.5,2.5 0 0 1 16.5,19 2.5,2.5 0 0 1 14,16.5 2.5,2.5 0 0 1 16.5,14 Z M 16,14.5 V 16 16.5 17 h 2.5 V 16 H 17 v -1.5 z"/>
</svg>
